src/assets/images/logos/logo.svg

<?xml version="1.0" encoding="UTF-8"?>
<svg width="148" height="40" viewBox="0 0 148 40" version="1.1" xmlns="http://www.w3.org/2000/svg" xmlns:xlink="http://www.w3.org/1999/xlink">
    <title>Netlify</title>
    <defs>
        <radialGradient cx="50%" cy="-50%" fx="50%" fy="-50%" r="100.10989%" gradientTransform="translate(0.500000,-0.500000),scale(1.000000,0.998901),rotate(90.000000),translate(-0.500000,0.500000)" id="radialGradient-1">
            <stop stop-color="#20C6B7" offset="0%"></stop>
            <stop stop-color="#4D9ABF" offset="100%"></stop>
        </radialGradient>
    </defs>
    <g id="Page-1" stroke="none" stroke-width="1" fill="none" fill-rule="evenodd">
        <g id="Artboard" transform="translate(-65.000000, -54.000000)">
            <g id="logo" transform="translate(65.000000, 54.000000)"></g>
            <g id="Group" transform="translate(65.129000, 54.828932)" fill-rule="nonzero">
                <path d="M53.241,12.1490676 L53.364,14.3470676 C54.767,12.6470676 56.609,11.7970676 58.889,11.7970676 C62.84,11.7970676 64.851,14.0650676 64.921,18.6010676 L64.921,31.1690676 L60.661,31.1690676 L60.661,18.8470676 C60.661,17.6400676 60.401,16.7470676 59.881,16.1660676 C59.361,15.5860676 58.51,15.2960676 57.329,15.2960676 C55.61,15.2960676 54.329,16.0760676 53.489,17.6340676 L53.489,31.1690676 L49.227,31.1690676 L49.227,12.1490676 L53.243,12.1490676 L53.241,12.1490676 Z M77.619,31.5210676 C74.919,31.5210676 72.729,30.6690676 71.052,28.9640676 C69.374,27.2590676 68.535,24.9880676 68.535,22.1520676 L68.535,21.6250676 C68.535,19.7270676 68.9,18.0300676 69.631,16.5360676 C70.361,15.0420676 71.388,13.8790676 72.709,13.0460676 C74.03,12.2150676 75.503,11.7990676 77.129,11.7990676 C79.712,11.7990676 81.709,12.6250676 83.117,14.2770676 C84.527,15.9300676 85.231,18.2670676 85.231,21.2910676 L85.231,23.0140676 L72.831,23.0140676 C72.961,24.5840676 73.483,25.8260676 74.401,26.7400676 C75.319,27.6540676 76.474,28.1110676 77.865,28.1110676 C79.817,28.1110676 81.407,27.3210676 82.635,25.7380676 L84.932,27.9360676 C84.172,29.0720676 83.158,29.9540676 81.89,30.5810676 C80.621,31.2080676 79.198,31.5210676 77.62,31.5210676 L77.619,31.5210676 Z M77.111,15.2270676 C75.941,15.2270676 74.998,15.6370676 74.279,16.4570676 C73.559,17.2770676 73.101,18.4200676 72.902,19.8850676 L81.022,19.8850676 L81.022,19.5680676 C80.928,18.1380676 80.548,17.0580676 79.882,16.3250676 C79.215,15.5930676 78.292,15.2270676 77.111,15.2270676 L77.111,15.2270676 Z M93.876,7.52706765 L93.876,12.1500676 L97.226,12.1500676 L97.226,15.3140676 L93.876,15.3140676 L93.876,25.9310676 C93.876,26.6570676 94.02,27.1810676 94.306,27.5040676 C94.592,27.8260676 95.104,27.9870676 95.841,27.9870676 C96.3427685,27.9856662 96.8427142,27.9266123 97.331,27.8110676 L97.331,31.1160676 C96.361,31.3860676 95.426,31.5200676 94.525,31.5200676 C91.252,31.5200676 89.615,29.7100676 89.615,26.0890676 L89.615,15.3130676 L86.491,15.3130676 L86.491,12.1490676 L89.613,12.1490676 L89.613,7.52606765 L93.874,7.52606765 L93.876,7.52706765 Z M105.013,31.1700676 L100.751,31.1700676 L100.751,4.17006765 L105.013,4.17006765 L105.013,31.1700676 Z M114.185,31.1700676 L109.923,31.1700676 L109.923,12.1500676 L114.185,12.1500676 L114.185,31.1700676 Z M109.66,7.21006765 C109.66,6.55506765 109.867,6.01006765 110.282,5.57606765 C110.698,5.14306765 111.291,4.92606765 112.062,4.92606765 C112.834,4.92606765 113.43,5.14306765 113.852,5.57606765 C114.272,6.01006765 114.482,6.55506765 114.482,7.21106765 C114.482,7.85506765 114.272,8.39106765 113.852,8.81906765 C113.43,9.24706765 112.834,9.46106765 112.062,9.46106765 C111.291,9.46106765 110.698,9.24706765 110.282,8.81906765 C109.867,8.39206765 109.66,7.85506765 109.66,7.21106765 L109.66,7.21006765 Z M120.323,31.1700676 L120.323,15.3130676 L117.429,15.3130676 L117.429,12.1490676 L120.323,12.1490676 L120.323,10.4090676 C120.323,8.29906765 120.907,6.67106765 122.076,5.52206765 C123.246,4.37406765 124.882,3.80006765 126.986,3.80006765 C127.735,3.80006765 128.53,3.90506765 129.372,4.11606765 L129.267,7.45606765 C128.729209,7.35625227 128.182934,7.30936167 127.636,7.31606765 C125.601,7.31606765 124.584,8.36406765 124.584,10.4620676 L124.584,12.1490676 L128.442,12.1490676 L128.442,15.3130676 L124.584,15.3130676 L124.584,31.1690676 L120.323,31.1690676 L120.323,31.1700676 Z M138.193,25.0530676 L142.051,12.1500676 L146.593,12.1500676 L139.053,34.0530676 C137.895,37.2520676 135.931,38.8520676 133.16,38.8520676 C132.54,38.8520676 131.856,38.7460676 131.108,38.5350676 L131.108,35.2300676 L131.915,35.2830676 C132.99,35.2830676 133.8,35.0870676 134.344,34.6940676 C134.887,34.3020676 135.317,33.6430676 135.633,32.7170676 L136.246,31.0820676 L129.582,12.1500676 L134.177,12.1500676 L138.193,25.0530676 Z" id="Shape" fill="#0E1E25"></path>
                <path d="M27.758,13.3060676 L27.744,13.3000676 C27.736,13.2970676 27.728,13.2940676 27.721,13.2870676 C27.6977454,13.2620896 27.6874014,13.2277327 27.693,13.1940676 L28.466,8.46806765 L32.091,12.0940676 L28.321,13.6980676 C28.3105229,13.7022926 28.2992937,13.7043342 28.288,13.7040908 L28.273,13.7040908 C28.268,13.7010676 28.263,13.6970676 28.253,13.6870676 C28.1126992,13.5308531 27.94492,13.401714 27.758,13.3060676 Z M33.016,13.0180676 L36.892,16.8940676 C37.697,17.7000676 38.1,18.1020676 38.247,18.5680676 C38.269,18.6370676 38.287,18.7060676 38.301,18.7770676 L29.038,14.8540676 C29.0330223,14.8520122 29.028022,14.8500121 29.023,14.8480676 C28.986,14.8330676 28.943,14.8160676 28.943,14.7780676 C28.943,14.7400676 28.987,14.7220676 29.024,14.7070676 L29.036,14.7020676 L33.016,13.0180676 Z M38.143,20.0210676 C37.943,20.3970676 37.553,20.7870676 36.893,21.4480676 L32.523,25.8170676 L26.871,24.6400676 L26.841,24.6340676 C26.791,24.6260676 26.738,24.6170676 26.738,24.5720676 C26.6946089,24.1007585 26.4573699,23.6686576 26.083,23.3790676 C26.06,23.3560676 26.066,23.3200676 26.073,23.2870676 C26.073,23.2820676 26.073,23.2770676 26.075,23.2730676 L27.138,16.7470676 L27.142,16.7250676 C27.148,16.6750676 27.157,16.6170676 27.202,16.6170676 C27.6621638,16.559823 28.0800834,16.3202397 28.362,15.9520676 C28.371,15.9420676 28.377,15.9310676 28.389,15.9250676 C28.421,15.9100676 28.459,15.9250676 28.492,15.9390676 L38.142,20.0210676 L38.143,20.0210676 Z M31.518,26.8220676 L24.332,34.0080676 L25.562,26.4480676 L25.564,26.4380676 C25.565,26.4280676 25.567,26.4180676 25.57,26.4090676 C25.58,26.3850676 25.606,26.3750676 25.631,26.3650676 L25.643,26.3600676 C25.9123157,26.2451623 26.1505111,26.0679724 26.338,25.8430676 C26.362,25.8150676 26.391,25.7880676 26.428,25.7830676 C26.4376031,25.7815 26.4473969,25.7815 26.457,25.7830676 L31.517,26.8230676 L31.518,26.8220676 Z M22.811,35.5290676 L22.001,36.3390676 L13.046,23.3970676 C13.0427617,23.3923338 13.0394277,23.3876662 13.036,23.3830676 C13.022,23.3640676 13.007,23.3450676 13.01,23.3230676 C13.01,23.3070676 13.021,23.2930676 13.032,23.2810676 L13.042,23.2680676 C13.069,23.2280676 13.092,23.1880676 13.117,23.1450676 L13.137,23.1100676 L13.14,23.1070676 C13.154,23.0830676 13.167,23.0600676 13.191,23.0470676 C13.212,23.0370676 13.241,23.0410676 13.264,23.0460676 L23.185,25.0920676 C23.2127403,25.0963815 23.2389087,25.1077441 23.261,25.1250676 C23.274,25.1380676 23.277,25.1520676 23.28,25.1680676 C23.4202807,25.6988279 23.8005833,26.1335123 24.308,26.3430676 C24.336,26.3570676 24.324,26.3880676 24.311,26.4210676 C24.304514,26.4355307 24.299489,26.4506056 24.296,26.4660676 C24.171,27.2260676 23.099,33.7640676 22.811,35.5290676 Z M21.119,37.2200676 C20.522,37.8110676 20.17,38.1240676 19.772,38.2500676 C19.3795761,38.3741578 18.9584239,38.3741578 18.566,38.2500676 C18.1,38.1020676 17.697,37.7000676 16.892,36.8940676 L7.899,27.9010676 L10.248,24.2580676 C10.259,24.2400676 10.27,24.2240676 10.288,24.2110676 C10.313,24.1930676 10.349,24.2010676 10.379,24.2110676 C10.9181605,24.373729 11.4970435,24.3443961 12.017,24.1280676 C12.044,24.1181136 12.071,24.1110676 12.092,24.1300676 C12.1025013,24.1396531 12.1118934,24.1503869 12.12,24.1620676 L21.119,37.2210676 L21.119,37.2200676 Z M7.032,27.0340676 L4.969,24.9710676 L9.043,23.2330676 C9.05341347,23.2285268 9.06463982,23.2261455 9.076,23.2260676 C9.11,23.2260676 9.13,23.2600676 9.148,23.2910676 C9.188942,23.354056 9.23230782,23.4154354 9.278,23.4750676 L9.291,23.4910676 C9.303,23.5080676 9.295,23.5250676 9.283,23.5410676 L7.033,27.0340676 L7.032,27.0340676 Z M4.056,24.0580676 L1.446,21.4480676 C1.002,21.0040676 0.68,20.6820676 0.456,20.4050676 L8.392,22.0510676 C8.40196901,22.0529152 8.41197064,22.0545822 8.422,22.0560676 C8.471,22.0640676 8.525,22.0730676 8.525,22.1190676 C8.525,22.1690676 8.466,22.1920676 8.416,22.2110676 L8.393,22.2210676 L4.056,24.0580676 Z M7.10542736e-15,19.0630676 C0.00904415629,18.894937 0.0392833569,18.7286214 0.09,18.5680676 C0.238,18.1020676 0.64,17.7000676 1.446,16.8940676 L4.786,13.5540676 C6.32383313,15.7859474 7.86583583,18.0149513 9.412,20.2410676 C9.439,20.2770676 9.469,20.3170676 9.438,20.3470676 C9.292,20.5080676 9.146,20.6840676 9.043,20.8750676 C9.03182604,20.8996186 9.01462646,20.9209461 8.993,20.9370676 C8.98,20.9450676 8.966,20.9420676 8.951,20.9390676 L8.949,20.9390676 L7.10542736e-15,19.0620676 L7.10542736e-15,19.0630676 Z M5.68,12.6600676 L10.169,8.16906765 C10.592,8.35406765 12.129,9.00306765 13.502,9.58306765 C14.542,10.0230676 15.49,10.4230676 15.788,10.5530676 C15.818,10.5650676 15.845,10.5770676 15.858,10.6070676 C15.866,10.6250676 15.862,10.6480676 15.858,10.6670676 C15.7135908,11.3255878 15.9101423,12.0125784 16.381,12.4950676 C16.411,12.5250676 16.381,12.5680676 16.355,12.6050676 L16.341,12.6260676 L11.781,19.6890676 C11.769,19.7090676 11.758,19.7260676 11.738,19.7390676 C11.714,19.7540676 11.68,19.7470676 11.652,19.7400676 C11.4746449,19.6936015 11.2923213,19.6687545 11.109,19.6660676 C10.945,19.6660676 10.767,19.6960676 10.587,19.7290676 L10.586,19.7290676 C10.566,19.7320676 10.548,19.7360676 10.532,19.7240676 C10.5143284,19.7096258 10.4991291,19.6923999 10.487,19.6730676 L5.679,12.6600676 L5.68,12.6600676 Z M11.078,7.26206765 L16.892,1.44806765 C17.697,0.643067647 18.1,0.240067647 18.566,0.0930676467 C18.9584239,-0.0310225489 19.3795761,-0.0310225489 19.772,0.0930676467 C20.238,0.240067647 20.641,0.643067647 21.446,1.44806765 L22.706,2.70806765 L18.571,9.11206765 C18.5607707,9.13071072 18.5468146,9.14704952 18.53,9.16006765 C18.505,9.17706765 18.47,9.17006765 18.44,9.16006765 C17.7781452,8.95921375 17.0598165,9.0976417 16.52,9.53006765 C16.493,9.55806765 16.453,9.54206765 16.419,9.52706765 C15.879,9.29206765 11.679,7.51706765 11.078,7.26206765 L11.078,7.26206765 Z M23.584,3.58606765 L27.402,7.40406765 L26.482,13.1020676 L26.482,13.1170676 C26.4811786,13.1300537 26.478484,13.1428527 26.474,13.1550676 C26.464,13.1750676 26.444,13.1790676 26.424,13.1850676 C26.2272991,13.2446492 26.0420404,13.3369405 25.876,13.4580676 C25.8688617,13.4631548 25.8621707,13.4688421 25.856,13.4750676 C25.845,13.4870676 25.834,13.4980676 25.816,13.500122 C25.8013499,13.5005203 25.7867501,13.4981436 25.773,13.4930676 L19.955,11.0210676 L19.944,11.0160676 C19.907,11.0010676 19.863,10.9830676 19.863,10.9450676 C19.8288032,10.6208519 19.7229124,10.3083032 19.553,10.0300676 C19.525,9.98406765 19.494,9.93606765 19.518,9.88906765 L23.584,3.58606765 Z M19.652,12.1920676 L25.106,14.5020676 C25.136,14.5160676 25.169,14.5290676 25.182,14.5600676 C25.1872043,14.5787113 25.1872043,14.598424 25.182,14.6170676 C25.166,14.6970676 25.152,14.7880676 25.152,14.8800676 L25.152,15.0330676 C25.152,15.0710676 25.113,15.0870676 25.077,15.1020676 L25.066,15.1060676 C24.202,15.4750676 12.936,20.2790676 12.919,20.2790676 C12.902,20.2790676 12.884,20.2790676 12.867,20.2620676 C12.837,20.2320676 12.867,20.1900676 12.894,20.1520676 C12.8987734,20.1454764 12.9034407,20.1388088 12.908,20.1320676 L17.39,13.1920676 L17.398,13.1800676 C17.424,13.1380676 17.454,13.0910676 17.502,13.0910676 L17.547,13.0980676 C17.649,13.1120676 17.739,13.1250676 17.83,13.1250676 C18.51,13.1250676 19.14,12.7940676 19.52,12.2280676 C19.5290537,12.2129533 19.5405416,12.1994381 19.554,12.1880676 C19.581,12.1680676 19.621,12.1780676 19.652,12.1920676 L19.652,12.1920676 Z M13.406,21.3770676 L25.686,16.1400676 C25.686,16.1400676 25.704,16.1400676 25.721,16.1570676 C25.788,16.2240676 25.845,16.2690676 25.9,16.3110676 L25.927,16.3280676 C25.952,16.3420676 25.977,16.3580676 25.979,16.3840676 C25.979,16.3940676 25.979,16.4000676 25.977,16.4090676 L24.925,22.8710676 L24.921,22.8970676 C24.914,22.9470676 24.907,23.0040676 24.86,23.0040676 C24.290594,23.0425011 23.7768315,23.3594397 23.487,23.8510676 L23.482,23.8590676 C23.468,23.8820676 23.455,23.9040676 23.432,23.9160676 C23.411,23.9260676 23.384,23.9220676 23.362,23.9170676 L13.569,21.8970676 C13.559,21.8950676 13.417,21.3780676 13.406,21.3770676 L13.406,21.3770676 Z" id="Shape" fill="url(#radialGradient-1)"></path>
            </g>
        </g>
    </g>
</svg>

<svg viewBox="0 0 148 49" xmlns="http://www.w3.org/2000/svg" xmlns:xlink="http://www.w3.org/1999/xlink"><radialGradient id="a" cy="-50%" gradientTransform="matrix(0 .9989 -1 0 0 -1)" r="100.11%"><stop offset="0" stop-color="#20c6b7"/><stop offset="1" stop-color="#4d9abf"/></radialGradient><g fill="none" transform="translate(.129 .829)"><path d="m50.71 47.17v-4.47h4.45v-1.4h-4.45v-3.4h4.86v-1.4h-6.47v10.67h1.6zm9.2.13c1.34 0 2.1-.6 2.4-1.25h.05v1.12h1.56v-8.23h-1.58v5.02c0 1.26-.79 1.95-1.88 1.95-1 0-1.85-.44-1.85-1.93v-5.04h-1.57v5.48c0 1.9 1.18 2.88 2.88 2.88zm7.86-.13v-4.95c0-1.1.6-2.03 1.9-2.03 1.1 0 1.88.65 1.88 1.99v5h1.57v-5.3c0-2-1.23-3.08-2.91-3.08-1.35 0-2.11.72-2.4 1.26h-.06v-1.12h-1.55v8.23zm10.68.14c1.9 0 3.04-.98 3.27-2.54h-1.5c-.14.65-.68 1.2-1.67 1.2-1.23 0-2.01-1-2.01-2.56v-.74c0-1.58.74-2.54 2-2.54.85 0 1.46.62 1.62 1.31h1.52c-.07-1.36-1.26-2.64-3.23-2.64-2.2 0-3.5 1.59-3.5 3.83v.77c0 2.26 1.28 3.91 3.5 3.91zm8.26-.08c.33 0 .64-.03.77-.05v-1.23l-.37.02c-.97 0-1.3-.25-1.3-1.19v-4.56h1.62v-1.28h-1.63v-2.04h-1.56v2.03h-1.14v1.28h1.13v4.64c0 1.64.49 2.37 2.47 2.37zm3.55-9.37c.53 0 .96-.4.96-.93a.93.93 0 0 0 -.96-.93c-.53 0-.96.4-.96.93s.43.93.96.93zm.8 9.31v-8.23h-1.59v8.23h1.58zm5.64.14c2.34 0 3.6-1.64 3.6-3.93v-.7c0-2.22-1.26-3.88-3.6-3.88-2.35 0-3.63 1.67-3.63 3.9v.68c0 2.3 1.28 3.93 3.63 3.93zm0-1.31c-1.34 0-2.04-1.09-2.04-2.64v-.63c0-1.57.7-2.64 2.03-2.64 1.34 0 2.02 1.06 2.02 2.64v.63c0 1.56-.67 2.64-2.02 2.64zm7.12 1.17v-4.95c0-1.1.6-2.03 1.9-2.03 1.1 0 1.89.65 1.89 1.99v5h1.57v-5.3c0-2-1.23-3.08-2.92-3.08-1.35 0-2.1.72-2.4 1.26h-.05v-1.12h-1.56v8.23zm10.22.14c2.02 0 3.34-.95 3.34-2.6 0-1.59-1.24-2.04-2.77-2.31-.94-.17-2.07-.35-2.07-1.24 0-.74.65-1.15 1.57-1.15 1.18 0 1.56.68 1.6 1.27h1.44c0-1.42-1.05-2.48-3-2.48-1.63 0-3.13.75-3.13 2.52 0 1.5 1.24 2 2.76 2.31 1.11.22 2.06.38 2.06 1.27 0 .65-.53 1.2-1.7 1.2-1.02 0-1.63-.48-1.73-1.18h-1.54c0 1.48 1.25 2.4 3.17 2.4z" fill="#4d9abf"/><path d="m53.24 12.15.12 2.2a6.82 6.82 0 0 1 5.53-2.55c3.95 0 5.96 2.27 6.03 6.8v12.57h-4.26v-12.32c0-1.21-.26-2.1-.78-2.68s-1.37-.87-2.55-.87c-1.72 0-3 .78-3.84 2.33v13.54h-4.26v-19.02zm24.38 19.37a8.8 8.8 0 0 1 -6.57-2.56c-1.68-1.7-2.52-3.97-2.52-6.8v-.53c0-1.9.37-3.6 1.1-5.1a8.13 8.13 0 0 1 7.5-4.74c2.58 0 4.58.84 5.99 2.49 1.4 1.65 2.11 3.99 2.11 7.01v1.72h-12.4a5.72 5.72 0 0 0 1.57 3.73 4.7 4.7 0 0 0 3.46 1.37c1.96 0 3.55-.79 4.78-2.37l2.3 2.2a7.68 7.68 0 0 1 -3.05 2.64 9.5 9.5 0 0 1 -4.27.94zm-.5-16.3c-1.18 0-2.12.42-2.84 1.24a6.38 6.38 0 0 0 -1.38 3.43h8.12v-.32a5.2 5.2 0 0 0 -1.14-3.24 3.56 3.56 0 0 0 -2.77-1.1zm16.76-7.7v4.63h3.35v3.16h-3.35v10.62c0 .73.14 1.25.43 1.57.28.33.8.49 1.53.49.5 0 1-.06 1.5-.18v3.3c-.98.28-1.91.41-2.81.41-3.28 0-4.92-1.81-4.92-5.43v-10.79h-3.11v-3.16h3.12v-4.61h4.26zm11.12 23.66h-4.26v-27h4.26zm9.17 0h-4.26v-19.03h4.27v19.02zm-4.52-23.96c0-.65.2-1.2.62-1.63.42-.44 1.01-.65 1.78-.65s1.37.21 1.8.65c.41.43.62.98.62 1.63a2.2 2.2 0 0 1 -.63 1.6 2.4 2.4 0 0 1 -1.79.65c-.77 0-1.36-.21-1.78-.64a2.22 2.22 0 0 1 -.62-1.6v-.03zm10.66 23.96v-15.87h-2.9v-3.16h2.9v-1.75c0-2.11.59-3.74 1.76-4.89s2.8-1.72 4.9-1.72c.75 0 1.55.1 2.4.32l-.11 3.34a8.38 8.38 0 0 0 -1.63-.14c-2.04 0-3.06 1.04-3.06 3.14v1.69h3.86v3.16h-3.86v15.86h-4.26zm17.87-6.12 3.86-12.9h4.54l-7.54 21.9c-1.16 3.2-3.12 4.8-5.89 4.8-.62 0-1.3-.1-2.05-.31v-3.31l.8.05c1.08 0 1.89-.2 2.43-.59a3.9 3.9 0 0 0 1.3-1.97l.6-1.64-6.66-18.93h4.6l4.01 12.9z" fill="#0e1e25"/><path d="m27.76 13.3h-.02l-.02-.01a.11.11 0 0 1 -.03-.1l.78-4.72 3.62 3.62-3.77 1.6-.03.01h-.02l-.02-.01c-.14-.16-.3-.29-.5-.38zm5.26-.28 3.87 3.87c.8.81 1.21 1.21 1.36 1.68l.05.2-9.26-3.92h-.02c-.03-.02-.08-.03-.08-.07s.05-.06.08-.07h.02l3.98-1.7zm5.12 7c-.2.38-.59.77-1.25 1.43l-4.37 4.37-5.65-1.18h-.03c-.05-.01-.1-.02-.1-.07a1.7 1.7 0 0 0 -.66-1.2c-.02-.01-.01-.05 0-.08v-.02l1.06-6.52v-.02c0-.05.02-.11.06-.11.46-.06.88-.3 1.16-.67l.03-.02c.03-.02.07 0 .1 0l9.65 4.1zm-6.62 6.8-7.19 7.19 1.23-7.56v-.01l.01-.03c.01-.02.04-.03.06-.04l.01-.01c.27-.11.51-.3.7-.52.02-.02.05-.05.09-.06h.03zm-8.7 8.7-.82.82-8.95-12.94-.01-.02c-.02-.02-.03-.03-.03-.06l.02-.04.01-.01.08-.12.02-.04c.01-.03.03-.05.05-.06s.05 0 .07 0l9.92 2.04c.03 0 .06.02.08.04l.02.04c.14.53.52.96 1.03 1.17.03.02.01.05 0 .08l-.01.05-1.49 9.06zm-1.7 1.7c-.6.6-.95.9-1.35 1.03a2 2 0 0 1 -1.2 0c-.47-.15-.87-.55-1.68-1.36l-9-8.99 2.36-3.64a.15.15 0 0 1 .04-.05c.02-.02.06 0 .09 0 .54.16 1.12.13 1.64-.08.02-.01.05-.02.07 0l.03.03zm-14.09-10.19-2.06-2.06 4.07-1.74h.04c.03 0 .05.03.07.06l.13.19.01.01v.05l-2.26 3.5zm-2.97-2.97-2.61-2.61c-.45-.45-.77-.77-1-1.05l7.94 1.64h.03c.05.01.1.02.1.07s-.05.07-.1.1h-.03l-4.33 1.84zm-4.06-5a2 2 0 0 1 .09-.5c.15-.46.55-.86 1.36-1.67l3.34-3.34c1.53 2.24 3.08 4.46 4.62 6.7.03.03.06.07.03.1a2.78 2.78 0 0 0 -.45.59h-.04l-8.95-1.88zm5.68-6.4 4.49-4.5c.42.2 1.96.84 3.33 1.42l2.29.97c.03.02.06.03.07.06v.06a2 2 0 0 0 .52 1.83c.03.03 0 .07-.02.1l-.02.03-4.56 7.06a.14.14 0 0 1 -.04.05h-.09a2.27 2.27 0 0 0 -.54-.07 3 3 0 0 0 -.52.06h-.06a.21.21 0 0 1 -.04-.06l-4.81-7.01zm5.4-5.4 5.81-5.81c.81-.8 1.21-1.21 1.68-1.36a2 2 0 0 1 1.2 0c.47.15.87.55 1.68 1.36l1.25 1.25-4.14 6.4a.16.16 0 0 1 -.04.05c-.03.02-.06.01-.09 0a2.1 2.1 0 0 0 -1.92.37c-.03.03-.07.01-.1 0l-5.34-2.27zm12.5-3.67 3.82 3.81-.92 5.7v.06l-.06.03a1.83 1.83 0 0 0 -.6.31h-.05l-5.82-2.48c-.04-.02-.09-.04-.09-.07a2.2 2.2 0 0 0 -.3-.92c-.04-.05-.07-.1-.04-.14zm-3.93 8.6 5.46 2.31c.03.02.06.03.07.06a.1.1 0 0 1 0 .06c-.01.08-.03.17-.03.26v.15c0 .04-.04.06-.07.07h-.01l-12.15 5.18c-.02 0-.04 0-.05-.02-.03-.03 0-.07.02-.1l.02-.03 4.48-6.94v-.01c.03-.04.06-.09.11-.09h.05c.1.02.19.04.28.04a2.02 2.02 0 0 0 1.72-.94c.03-.02.07-.01.1 0zm-6.24 9.19 12.28-5.24.03.02.18.15.03.02c.02.01.05.03.05.05v.03l-1.05 6.46v.03c-.02.05-.02.1-.07.1-.57.04-1.08.36-1.37.85l-.06.07h-.07l-9.8-2.02z" fill="url(#a)"/></g></svg>
